X: 1
T: Pink Flamingo, The
C: Nuala Kennedy
M: 6/8
L: 1/8
R: jig
K:Gmin
|: G2 A BAG | A2 B cBA | G2 A BAG | dGB AGF |
G2 A BAG | A2 B cBA | B3 AGF | dGB AGF :|
|: B2 c dcB | cfc AGF | B2 c dcB | AFA cBA |
B2 c dcB | cfc AGF | B3 AGF | dGB AGF :|
|: z bg afg | dfc dBc | ABG AGF | dGB AGF |
z bg afg | dfc dBc |1 ABG AGF | dGB A3 :| 2 B3 AGF | dGB AGF ||
